apps/18/rhythmbox.svg

<?xml version="1.0" encoding="UTF-8" standalone="no"?>
<!-- Created with Inkscape (http://www.inkscape.org/) -->

<svg
   xmlns:dc="http://purl.org/dc/elements/1.1/"
   xmlns:cc="http://creativecommons.org/ns#"
   xmlns:rdf="http://www.w3.org/1999/02/22-rdf-syntax-ns#"
   xmlns:svg="http://www.w3.org/2000/svg"
   xmlns="http://www.w3.org/2000/svg"
   xmlns:sodipodi="http://sodipodi.sourceforge.net/DTD/sodipodi-0.dtd"
   xmlns:inkscape="http://www.inkscape.org/namespaces/inkscape"
   version="1.1"
   width="18"
   height="18"
   id="svg2"
   inkscape:version="0.48.4 r9939"
   sodipodi:docname="rhythmbox.svg">
  <sodipodi:namedview
     pagecolor="#ffffff"
     bordercolor="#666666"
     borderopacity="1"
     objecttolerance="10"
     gridtolerance="10"
     guidetolerance="10"
     inkscape:pageopacity="0"
     inkscape:pageshadow="2"
     inkscape:window-width="1920"
     inkscape:window-height="1017"
     id="namedview6"
     showgrid="true"
     inkscape:zoom="22.627417"
     inkscape:cx="12.675171"
     inkscape:cy="7.5572329"
     inkscape:window-x="-5"
     inkscape:window-y="26"
     inkscape:window-maximized="1"
     inkscape:current-layer="svg2"
     inkscape:snap-global="true"
     inkscape:snap-bbox="true"
     inkscape:bbox-paths="true"
     inkscape:bbox-nodes="true"
     inkscape:snap-bbox-edge-midpoints="true"
     inkscape:snap-bbox-midpoints="true"
     inkscape:object-paths="true"
     inkscape:snap-intersection-paths="true"
     inkscape:object-nodes="true"
     inkscape:snap-smooth-nodes="true"
     inkscape:snap-midpoints="true"
     inkscape:snap-object-midpoints="true"
     inkscape:snap-center="true">
    <inkscape:grid
       type="xygrid"
       id="grid2982"
       empspacing="5"
       visible="true"
       enabled="true"
       snapvisiblegridlinesonly="true" />
  </sodipodi:namedview>
  <defs
     id="defs4" />
  <metadata
     id="metadata7">
    <rdf:RDF>
      <cc:Work
         rdf:about="">
        <dc:format>image/svg+xml</dc:format>
        <dc:type
           rdf:resource="http://purl.org/dc/dcmitype/StillImage" />
        <dc:title />
      </cc:Work>
    </rdf:RDF>
  </metadata>
  <path
     id="path3807"
     d="M 6,2 C 4.892,2 4,2.892 4,4 l 0,10 c 0,1.108 0.892,2 2,2 l 6,0 c 1.108,0 2,-0.892 2,-2 L 14,4 C 14,2.892 13.108,2 12,2 L 6,2 z m 3,2 c 1.656854,0 3,1.3431458 3,3 0,1.6568542 -1.343146,3 -3,3 C 7.3431458,10 6,8.6568542 6,7 6,5.3431458 7.3431458,4 9,4 z M 9,6 C 8.4477159,6 8,6.4477159 8,7 8,7.5522841 8.4477159,8 9,8 9.5522841,8 10,7.5522841 10,7 10,6.4477159 9.5522841,6 9,6 z m 2,7 1,0 0,1 -1,0 0,-1 z"
     style="color:#000000;fill:#27303a;fill-opacity:0.753280819999999968;fill-rule:nonzero;stroke:none;stroke-width:1;marker:none;visibility:visible;display:inline;overflow:visible;enable-background:accumulate"
     inkscape:connector-curvature="0" />
  <path
     style="font-size:medium;font-style:normal;font-variant:normal;font-weight:normal;font-stretch:normal;text-indent:0;text-align:start;text-decoration:none;line-height:normal;letter-spacing:normal;word-spacing:normal;text-transform:none;direction:ltr;block-progression:tb;writing-mode:lr-tb;text-anchor:start;baseline-shift:baseline;opacity:0.58089498;color:#000000;fill:#f1f3f5;fill-opacity:0.90288714000000003;fill-rule:nonzero;stroke:none;stroke-width:2;marker:none;visibility:visible;display:inline;overflow:visible;enable-background:accumulate;font-family:Sans;-inkscape-font-specification:Sans"
     d="M 6,1 C 4.3552972,1 3,2.3552972 3,4 l 0,10 c 0,1.644703 1.3552972,3 3,3 l 6,0 c 1.644703,0 3,-1.355297 3,-3 L 15,4 C 15,2.3552972 13.644703,1 12,1 z m 0,1 6,0 c 1.108,0 2,0.892 2,2 l 0,10 c 0,1.108 -0.892,2 -2,2 L 6,16 C 4.892,16 4,15.108 4,14 L 4,4 C 4,2.892 4.892,2 6,2 z M 9,4 C 7.3431458,4 6,5.3431458 6,7 6,8.6568542 7.3431458,10 9,10 10.656854,10 12,8.6568542 12,7 12,5.3431458 10.656854,4 9,4 z m 0,1 c 1.104568,0 2,0.8954318 2,2 C 11,8.1045682 10.104568,9 9,9 7.8954318,9 7,8.1045682 7,7 7,5.8954318 7.8954318,5 9,5 z m 2,8 0,1 1,0 0,-1 z"
     id="rect3002"
     inkscape:connector-curvature="0"
     sodipodi:nodetypes="ssssssssssssssssssssssssssssccccc" />
</svg>

<?xml version="1.0" encoding="UTF-8"?>
<!-- Created with Inkscape (http://www.inkscape.org/) -->
<svg width="18" height="18" version="1.1" xmlns="http://www.w3.org/2000/svg" xmlns:cc="http://creativecommons.org/ns#" xmlns:dc="http://purl.org/dc/elements/1.1/" xmlns:rdf="http://www.w3.org/1999/02/22-rdf-syntax-ns#">
	<defs>
		<radialGradient id="a" cx="291.08" cy="-95.026" r="7.254" gradientTransform="matrix(2.6192,0,0,2.6932,-753.41,269.93)" gradientUnits="userSpaceOnUse">
			<stop stop-color="#213851" stop-opacity=".9059" offset="0"/>
			<stop stop-color="#27303a" stop-opacity="0" offset="1"/>
		</radialGradient>
		<radialGradient id="b" cx="7800.1" cy="-3926.4" r="6.5" gradientTransform="matrix(-7.7857e-6,1.8461,-2,-1.5122e-5,-7843.7,-14396)" gradientUnits="userSpaceOnUse">
			<stop stop-color="#ffffff" stop-opacity=".74858" offset="0"/>
			<stop stop-color="#ffffff" stop-opacity=".60511" offset="1"/>
		</radialGradient>
	</defs>
	<metadata>
		<rdf:RDF>
			<cc:Work rdf:about="">
				<dc:format>image/svg+xml</dc:format>
				<dc:type rdf:resource="http://purl.org/dc/dcmitype/StillImage"/>
				<dc:title/>
			</cc:Work>
		</rdf:RDF>
	</metadata>
	<path d="m6 2c-1.108 0-2 0.892-2 2v10c0 1.108 0.892 2 2 2h6c1.108 0 2-0.892 2-2v-10c0-1.108-0.892-2-2-2zm3 2c1.6569 0 3 1.3431 3 3s-1.3431 3-3 3-3-1.3431-3-3 1.3431-3 3-3zm0 2c-0.55228 0-1 0.44772-1 1s0.44772 1 1 1 1-0.44772 1-1-0.44772-1-1-1zm2 7h1v1h-1z" color="#000000" fill="#090d11" fill-opacity=".76621" style="paint-order:normal"/>
	<path d="m6 2c-1.108 0-2 0.892-2 2v10c0 1.108 0.892 2 2 2h6c1.108 0 2-0.892 2-2v-10c0-1.108-0.892-2-2-2zm3 2c1.6569 0 3 1.3431 3 3s-1.3431 3-3 3-3-1.3431-3-3 1.3431-3 3-3zm0 2c-0.55228 0-1 0.44772-1 1s0.44772 1 1 1 1-0.44772 1-1-0.44772-1-1-1zm2 7h1v1h-1z" color="#000000" fill="url(#a)" fill-opacity=".7533" style="paint-order:normal"/>
	<path d="m6 1c-1.6447 0-3 1.3553-3 3v10c0 1.6447 1.3553 3 3 3h6c1.6447 0 3-1.3553 3-3v-10c0-1.6447-1.3553-3-3-3zm0 1h6c1.108 0 2 0.892 2 2v10c0 1.108-0.892 2-2 2h-6c-1.108 0-2-0.892-2-2v-10c0-1.108 0.892-2 2-2zm3 2c-1.6569 0-3 1.3431-3 3s1.3431 3 3 3 3-1.3431 3-3-1.3431-3-3-3zm0 2c0.55228 0 1 0.44772 1 1s-0.44772 1-1 1-1-0.44772-1-1 0.44772-1 1-1zm2 7v1h1v-1z" color="#000000" fill="url(#b)" style="paint-order:normal;text-decoration-line:none;text-indent:0;text-transform:none"/>
</svg>
